svg/cradle_outline.svg

<svg xmlns="http://www.w3.org/2000/svg" viewBox="0 0 24 24"><path d="M18 9h-6V4H8C5.8 4 4 5.8 4 8v6c0 1.1.9 2 2 2h2v2.9c-.6-.4-1.2-.8-1.7-1.3L4.9 19c1.8 1.9 4.3 3 7.1 3s5.3-1.1 7.1-2.9l-1.4-1.4c-.5.5-1 .9-1.6 1.3v-3h2c1.1 0 2-.9 2-2v-3c-.1-1.1-1-2-2.1-2m-4 10.8c-.6.2-1.3.2-2 .2s-1.4-.1-2-.2V16h4zm4-5.8H6V8c0-1.1.9-2 2-2h2v5h8z"/></svg>

<svg xmlns="http://www.w3.org/2000/svg" id="mdi-cradle-outline" viewBox="0 0 24 24"><path d="M18 9H12V4H8C5.8 4 4 5.8 4 8V14C4 15.1 4.9 16 6 16H8V18.9C7.4 18.5 6.8 18.1 6.3 17.6L4.9 19C6.7 20.9 9.2 22 12 22S17.3 20.9 19.1 19.1L17.7 17.7C17.2 18.2 16.7 18.6 16.1 19V16H18.1C19.2 16 20.1 15.1 20.1 14V11C20 9.9 19.1 9 18 9M14 19.8C13.4 20 12.7 20 12 20S10.6 19.9 10 19.8V16H14V19.8M18 14H6V8C6 6.9 6.9 6 8 6H10V11H18V14Z" /></svg>
